src/assets/filled/VolumeMute.svg

<svg width="24" height="24" viewBox="0 0 24 24"  xmlns="http://www.w3.org/2000/svg">
<path d="M17.52 3.77997C16.4 3.15997 14.97 3.31997 13.51 4.22997L10.59 6.05997C10.39 6.17997 10.16 6.24997 9.93 6.24997H9H8.5C6.08 6.24997 4.75 7.57997 4.75 9.99997V14C4.75 16.42 6.08 17.75 8.5 17.75H9H9.93C10.16 17.75 10.39 17.82 10.59 17.94L13.51 19.77C14.39 20.32 15.25 20.59 16.05 20.59C16.57 20.59 17.07 20.47 17.52 20.22C18.63 19.6 19.25 18.31 19.25 16.59V7.40997C19.25 5.68997 18.63 4.39997 17.52 3.77997Z" />
</svg>

<?xml version="1.0" encoding="UTF-8"?>
<svg width="24" height="24" viewBox="0 0 24 24" xmlns="http://www.w3.org/2000/svg">
 <path d="m17.52 3.78c-1.12-0.62-2.55-0.46-4.01 0.45l-2.92 1.83c-0.2 0.12-0.43 0.19-0.66 0.19h-1.43c-2.42 0-3.75 1.33-3.75 3.75v4c0 2.42 1.33 3.75 3.75 3.75h1.43c0.23 0 0.46 0.07 0.66 0.19l2.92 1.83c0.88 0.55 1.74 0.82 2.54 0.82 0.52 0 1.02-0.12 1.47-0.37 1.11-0.62 1.73-1.91 1.73-3.63v-9.18c0-1.72-0.62-3.01-1.73-3.63z"/>
</svg>
